flaticon/stationery/paint-brushes.svg

<svg xmlns="http://www.w3.org/2000/svg" width="32" height="32" viewBox="0 0 24 24">
    <path d="M 23.503906 0.699219 C 22.890625 -0.0078125 21.828125 -0.222656 20.992188 0.289062 C 20.964844 0.304688 9.84375 10.070312 9.84375 10.070312 C 9.84375 10.070312 6.644531 13.34375 6.644531 13.34375 C 4.734375 13.605469 2.613281 15.269531 2.230469 17.722656 C 2 19.214844 1.410156 21.347656 0.0976562 23.175781 C -0.132812 23.5 0.0625 23.976562 0.507812 23.992188 C 0.523438 23.992188 0.535156 23.992188 0.550781 23.988281 C 0.804688 23.96875 6.816406 23.4375 8.835938 21.371094 C 9.746094 20.441406 10.355469 19.265625 10.5625 18.074219 C 10.617188 18.050781 14.148438 14.453125 14.148438 14.453125 C 14.148438 14.449219 23.695312 3.066406 23.710938 3.039062 C 24.433594 1.71875 23.589844 0.792969 23.503906 0.699219 Z M 8.105469 20.65625 C 6.898438 21.890625 3.574219 22.574219 1.539062 22.851562 C 2.566406 21.109375 3.03125 19.238281 3.242188 17.878906 C 3.523438 16.046875 5.070312 14.734375 6.496094 14.410156 L 9.597656 17.582031 C 9.492188 18.675781 8.957031 19.789062 8.105469 20.65625 Z M 10.34375 16.882812 L 7.480469 13.949219 L 10.214844 11.152344 L 13.082031 14.082031 Z M 22.847656 2.492188 L 13.765625 13.324219 L 10.957031 10.449219 L 21.558594 1.140625 C 22.023438 0.878906 22.582031 1.066406 22.84375 1.523438 C 22.945312 1.703125 23.078125 2.0625 22.847656 2.492188 Z M 22.847656 2.492188"/>
</svg>

<svg xmlns="http://www.w3.org/2000/svg" width="32" height="32" viewBox="0 0 24 24">
    <path d="M23.504.7c-.613-.708-1.676-.923-2.512-.41-.027.015-11.148 9.78-11.148 9.78l-3.2 3.274c-1.91.261-4.03 1.926-4.414 4.379-.23 1.492-.82 3.625-2.132 5.453-.23.324-.036.8.41.816.015 0 .027 0 .043-.004.254-.02 6.265-.55 8.285-2.617.91-.93 1.52-2.105 1.726-3.297.055-.023 3.586-3.62 3.586-3.62 0-.005 9.547-11.388 9.563-11.415.723-1.32-.121-2.246-.207-2.34zM8.105 20.655c-1.207 1.235-4.53 1.918-6.566 2.196 1.027-1.743 1.492-3.614 1.703-4.973.281-1.832 1.828-3.145 3.254-3.469l3.102 3.172c-.106 1.094-.641 2.207-1.493 3.074zm2.239-3.773L7.48 13.949l2.735-2.797 2.867 2.93zm12.504-14.39l-9.082 10.831-2.809-2.875 10.602-9.308c.464-.262 1.023-.075 1.285.382.101.18.234.54.004.97zm0 0"/>
</svg>
